images_elementary_svg/cmd/32/underline.svg

<svg height="32" width="32" xmlns="http://www.w3.org/2000/svg" xmlns:xlink="http://www.w3.org/1999/xlink"><radialGradient id="a" cx="10.903473" cy="14.502974" gradientTransform="matrix(-1.2196885 .08040792 -.11059577 -2.3622884 25.806282 45.108252)" gradientUnits="userSpaceOnUse" r="6.225339" xlink:href="#b"/><linearGradient id="b"><stop offset="0" stop-color="#555"/><stop offset="1" stop-color="#666"/></linearGradient><linearGradient id="c" gradientUnits="userSpaceOnUse" x1="12.761326" x2="12.761326" xlink:href="#b" y1="33.638302" y2="11.638302"/><g transform="matrix(1.33333 0 0 1.33333 .163341 -11.350962)"><path d="m16.752301 13.735378v10.454515q0 1.257189-.363923 2.33793-.363923 1.080741-1.102797 1.874754-.727846.794014-1.841671 1.246161-1.102797.452147-2.602601.452147-1.4115797 0-2.4923207-.419063-1.080741-.430091-1.819615-1.213077-.7278459-.782986-1.1027969-1.874755-.374951-1.102797-.374951-2.448209v-10.388347h2.0622303v10.498627q0 1.929895.9484054 2.98858.9594333 1.058685 2.8893279 1.058685.981489 0 1.687279-.297755.70579-.297756 1.157937-.838126.452147-.540371.672706-1.290273.22056-.749902.231588-1.643167v-10.498627z" fill="url(#a)" stroke="#000" stroke-opacity=".6" stroke-width=".750002" transform="scale(1.089334 .9179921)"/><path d="m1.752716 29.885566.017578 2.234376h19.504467l-.01758-2.234376z" fill="url(#c)"/><path d="m1.752716 29.885566.00414 2.252736h19.50447l-.0041-2.252736z" fill="none" opacity=".61" stroke="#000" stroke-width=".750002"/><g fill="#fff"><path d="m2.1302176 30.242557-.00272.769013h18.7500494l-.01548-.759479z" opacity=".2"/><path d="m21.515625 5.4609375v1.5h2.978516v-1.5zm-14.015625.0273437v1.5h2.996094v-1.5zm14.015625 12.8222658c-.010678.728896-.122371 1.399805-.335937 2.011719-.213567.611913-.538752 1.13914-.976563 1.580078-.437811.440937-.998228.782425-1.681641 1.02539-.683412.242966-1.500801.363282-2.451172.363282-1.868706 0-3.268251-.431045-4.197265-1.294922-.918336-.863878-1.376953-2.083427-1.376953-3.658203v1.5c0 1.574776.458617 2.794325 1.376953 3.658203.929014.863877 2.328559 1.294922 4.197265 1.294922.950371 0 1.76776-.120316 2.451172-.363282.683413-.242965 1.24383-.584453 1.681641-1.02539.437811-.440938.762996-.968165.976563-1.580078.213566-.611914.325259-1.282823.335937-2.011719z" opacity=".2" transform="matrix(.75000188 0 0 .75000188 -.122506 8.513243)"/></g></g></svg>

<?xml version="1.0" encoding="UTF-8" standalone="no"?>
<svg
   xmlns:dc="http://purl.org/dc/elements/1.1/"
   xmlns:cc="http://creativecommons.org/ns#"
   xmlns:rdf="http://www.w3.org/1999/02/22-rdf-syntax-ns#"
   xmlns:svg="http://www.w3.org/2000/svg"
   xmlns="http://www.w3.org/2000/svg"
   xmlns:xlink="http://www.w3.org/1999/xlink"
   xmlns:sodipodi="http://sodipodi.sourceforge.net/DTD/sodipodi-0.dtd"
   xmlns:inkscape="http://www.inkscape.org/namespaces/inkscape"
   height="32"
   width="32"
   version="1.1"
   id="svg43"
   sodipodi:docname="underline.svg"
   inkscape:version="0.92.4 (unknown)"
   inkscape:export-filename="/home/rizmut/Dokumen/Rizmut/Github/libreoffice-style-elementary/images_elementary/cmd/32/underline.png"
   inkscape:export-xdpi="96"
   inkscape:export-ydpi="96">
  <metadata
     id="metadata49">
    <rdf:RDF>
      <cc:Work
         rdf:about="">
        <dc:format>image/svg+xml</dc:format>
        <dc:type
           rdf:resource="http://purl.org/dc/dcmitype/StillImage" />
      </cc:Work>
    </rdf:RDF>
  </metadata>
  <defs
     id="defs47">
    <radialGradient
       inkscape:collect="always"
       xlink:href="#a"
       id="radialGradient844"
       cx="10.903473"
       cy="14.502974"
       fx="10.903473"
       fy="14.502974"
       r="6.2253389"
       gradientTransform="matrix(-1.2196885,0.08040792,-0.11059577,-2.3622884,25.806282,45.108252)"
       gradientUnits="userSpaceOnUse" />
  </defs>
  <sodipodi:namedview
     pagecolor="#ffffff"
     bordercolor="#666666"
     borderopacity="1"
     objecttolerance="10"
     gridtolerance="10"
     guidetolerance="10"
     inkscape:pageopacity="0"
     inkscape:pageshadow="2"
     inkscape:window-width="1366"
     inkscape:window-height="714"
     id="namedview45"
     showgrid="true"
     inkscape:zoom="10.429825"
     inkscape:cx="2.8165008"
     inkscape:cy="21.120737"
     inkscape:window-x="0"
     inkscape:window-y="28"
     inkscape:window-maximized="1"
     inkscape:current-layer="g41">
    <inkscape:grid
       type="xygrid"
       id="grid832" />
  </sodipodi:namedview>
  <linearGradient
     id="a">
    <stop
       offset="0"
       stop-color="#555"
       id="stop2" />
    <stop
       offset="1"
       stop-color="#666"
       id="stop4" />
  </linearGradient>
  <linearGradient
     id="b"
     gradientUnits="userSpaceOnUse"
     x1="12.761326"
     x2="12.761326"
     xlink:href="#a"
     y1="33.638302"
     y2="11.638302" />
  <linearGradient
     id="c">
    <stop
       offset="0"
       id="stop8" />
    <stop
       offset="1"
       stop-opacity="0"
       id="stop10" />
  </linearGradient>
  <radialGradient
     id="d"
     cx="40"
     cy="43.5"
     gradientTransform="matrix(.87733142 0 0 .75 -17.142285 -3.625)"
     gradientUnits="userSpaceOnUse"
     r="2"
     xlink:href="#c" />
  <radialGradient
     id="e"
     cx="9"
     cy="43.5"
     gradientTransform="matrix(.87733142 0 0 .75 -1.350319 -3.625)"
     gradientUnits="userSpaceOnUse"
     r="2"
     xlink:href="#c" />
  <linearGradient
     id="f"
     gradientTransform="matrix(.87733142 0 0 1 -5.736976 -14.5)"
     gradientUnits="userSpaceOnUse"
     x1="25"
     x2="25"
     y1="45"
     y2="42">
    <stop
       offset="0"
       stop-opacity="0"
       id="stop15" />
    <stop
       offset=".5"
       id="stop17" />
    <stop
       offset="1"
       stop-opacity="0"
       id="stop19" />
  </linearGradient>
  <linearGradient
     id="g"
     gradientTransform="matrix(.98244026 0 0 1.0032268 .121605 8.047357)"
     gradientUnits="userSpaceOnUse"
     x1="12.02772"
     x2="11.427851"
     xlink:href="#a"
     y1="25.544678"
     y2="4.392136" />
  <g
     transform="matrix(1.33333 0 0 1.33333 .163341 -11.350962)"
     id="g41">
    <text
       xml:space="preserve"
       style="font-style:normal;font-weight:normal;font-size:22.58528137px;line-height:1.25;font-family:sans-serif;letter-spacing:0px;word-spacing:0px;fill:url(#radialGradient844);fill-opacity:1;stroke:#000000;stroke-width:0.75000188;stroke-opacity:0.60000002;stroke-miterlimit:4;stroke-dasharray:none"
       x="3.0224791"
       y="29.880325"
       id="text836"
       transform="scale(1.089334,0.9179921)"><tspan
         sodipodi:role="line"
         id="tspan834"
         x="3.0224791"
         y="29.880325"
         style="font-style:normal;font-variant:normal;font-weight:normal;font-stretch:normal;font-family:'Droid Sans';-inkscape-font-specification:'Droid Sans';stroke-width:0.75000188;stroke:#000000;stroke-opacity:0.60000002;stroke-miterlimit:4;stroke-dasharray:none;fill-opacity:1;fill:url(#radialGradient844)">U</tspan></text>
    <path
       d="m1.752716 29.885566.017578 2.234376h19.504467l-.01758-2.234376z"
       fill="url(#b)"
       id="path25" />
    <path
       d="m1.752716 29.885566.00414 2.252736h19.50447l-.0041-2.252736z"
       fill="none"
       opacity=".61"
       stroke="#000"
       stroke-width=".750002"
       id="path27" />
    <path
       d="m2.1302176 30.242557-.00272.769013h18.7500494l-.01548-.759479z"
       fill="#fff"
       opacity=".2"
       id="path29" />
    <path
       style="font-style:normal;font-weight:normal;font-size:22.58528137px;line-height:1.25;font-family:sans-serif;letter-spacing:0px;word-spacing:0px;fill:#ffffff;fill-opacity:1;stroke:none;stroke-width:1;stroke-miterlimit:4;stroke-dasharray:none;stroke-opacity:0.6;opacity:0.2"
       d="M 21.515625 5.4609375 L 21.515625 6.9609375 L 24.494141 6.9609375 L 24.494141 5.4609375 L 21.515625 5.4609375 z M 7.5 5.4882812 L 7.5 6.9882812 L 10.496094 6.9882812 L 10.496094 5.4882812 L 7.5 5.4882812 z M 21.515625 18.310547 C 21.504947 19.039443 21.393254 19.710352 21.179688 20.322266 C 20.966121 20.934179 20.640936 21.461406 20.203125 21.902344 C 19.765314 22.343281 19.204897 22.684769 18.521484 22.927734 C 17.838072 23.1707 17.020683 23.291016 16.070312 23.291016 C 14.201606 23.291016 12.802061 22.859971 11.873047 21.996094 C 10.954711 21.132216 10.496094 19.912667 10.496094 18.337891 L 10.496094 19.837891 C 10.496094 21.412667 10.954711 22.632216 11.873047 23.496094 C 12.802061 24.359971 14.201606 24.791016 16.070312 24.791016 C 17.020683 24.791016 17.838072 24.6707 18.521484 24.427734 C 19.204897 24.184769 19.765314 23.843281 20.203125 23.402344 C 20.640936 22.961406 20.966121 22.434179 21.179688 21.822266 C 21.393254 21.210352 21.504947 20.539443 21.515625 19.810547 L 21.515625 18.310547 z "
       transform="matrix(0.75000188,0,0,0.75000188,-0.12250606,8.5132428)"
       id="text848" />
  </g>
</svg>
